assets/svg/icon_block_likecomment.svg

<svg width="18" height="18" viewBox="0 0 18 18" fill="none" xmlns="http://www.w3.org/2000/svg">
    <g id="icon/block_likecomment">
        <g id="Subtract">
            <path d="M9 15.7539C8.56841 15.7539 8.1557 15.5303 7.86943 15.1394L6.92777 13.86C6.90597 13.8363 6.83477 13.8008 6.79989 13.7964H6.48891C3.87174 13.7964 2.25 13.0737 2.25 9.47701V6.57474C2.25 3.74798 3.71625 2.25391 6.48891 2.25391H11.5111C14.2837 2.25391 15.75 3.74798 15.75 6.57325V9.00213C15.75 9.26366 15.5381 9.47575 15.2766 9.47604C15.0145 9.47632 14.802 9.26385 14.8022 9.00178L14.804 6.57325C14.804 4.28253 13.7577 3.21639 11.5096 3.21639H6.48891C4.24085 3.21639 3.19456 4.28253 3.19456 6.57325V9.47553C3.19456 12.3482 4.21033 12.8324 6.48891 12.8324H6.8028C7.12686 12.8324 7.49887 13.0234 7.68633 13.287L8.62363 14.5604C8.73262 14.7085 8.86631 14.7899 8.99855 14.7899C9.13079 14.7899 9.26448 14.7085 9.37347 14.5604L10.0142 13.69C10.1772 13.4685 10.4933 13.4307 10.7039 13.6075C10.8964 13.7691 10.9302 14.0524 10.7811 14.2547L10.1306 15.1379C9.84284 15.5288 9.43014 15.7524 9 15.7524V15.7539Z"
                    fill="white" />
            <path d="M12.1389 7.05517H5.86114C5.60102 7.05517 5.38886 6.83898 5.38886 6.57392C5.38886 6.30887 5.60102 6.09268 5.86114 6.09268H12.1389C12.399 6.09268 12.6111 6.30887 12.6111 6.57392C12.6111 6.83898 12.399 7.05517 12.1389 7.05517Z"
                    fill="white" />
            <path d="M5.86114 9.95779H9.62777C9.88789 9.95779 10.1001 9.7416 10.1001 9.47655C10.1001 9.2115 9.88789 8.99531 9.62777 8.99531H5.86114C5.60102 8.99531 5.38886 9.2115 5.38886 9.47655C5.38886 9.7416 5.60102 9.95779 5.86114 9.95779Z"
                    fill="white" />
        </g>
        <path id="Vector"
                d="M14.6516 14.1727L14.9621 14.5646L14.9622 14.5646L14.6516 14.1727ZM12.4775 13.4202L12.8522 13.0891L12.8522 13.0891L12.4775 13.4202ZM13.3484 14.1727L13.0378 14.5646L13.0378 14.5646L13.3484 14.1727ZM12.6978 11.0983L12.4891 10.644L12.4891 10.644L12.6978 11.0983ZM13.6496 14.3896L13.3964 14.8208L13.3964 14.8208L13.6496 14.3896ZM15.5225 13.4202L15.1478 13.0891L15.1478 13.0891L15.5225 13.4202ZM15.3022 11.0983L15.0934 11.5526L15.0934 11.5526L15.3022 11.0983ZM14.3504 14.3896L14.0972 13.9585L14.0972 13.9585L14.3504 14.3896ZM14 11.3599L13.6657 11.7317C13.8558 11.9026 14.1442 11.9026 14.3343 11.7317L14 11.3599ZM11.5 12.2348C11.5 12.8886 11.7764 13.3818 12.1028 13.7512L12.8522 13.0891C12.6368 12.8453 12.5 12.578 12.5 12.2348H11.5ZM12.1028 13.7512C12.4074 14.096 12.8015 14.3774 13.0378 14.5646L13.6589 13.7808C13.3643 13.5474 13.0799 13.3469 12.8522 13.0891L12.1028 13.7512ZM12.4891 10.644C11.8905 10.919 11.5 11.5421 11.5 12.2348H12.5C12.5 11.9131 12.6805 11.6565 12.9066 11.5526L12.4891 10.644ZM13.0378 14.5646C13.1287 14.6366 13.2578 14.7394 13.3964 14.8208L13.9029 13.9585C13.8341 13.9182 13.7586 13.8599 13.6589 13.7808L13.0378 14.5646ZM13.3964 14.8208C13.5349 14.9021 13.744 15 14 15V14C14 14 14 14 13.9999 14C13.9999 14 13.9998 14 13.9997 14C13.9996 14 13.9993 14 13.9989 13.9999C13.9981 13.9999 13.9968 13.9997 13.995 13.9994C13.9913 13.9987 13.9854 13.9973 13.9769 13.9944C13.9592 13.9884 13.935 13.9774 13.9028 13.9585L13.3964 14.8208ZM14.9622 14.5646C15.1984 14.3774 15.5926 14.096 15.8972 13.7512L15.1478 13.0891C14.9201 13.3469 14.6357 13.5474 14.3411 13.7808L14.9622 14.5646ZM15.8972 13.7512C16.2236 13.3818 16.5 12.8886 16.5 12.2348H15.5C15.5 12.578 15.3632 12.8453 15.1478 13.0891L15.8972 13.7512ZM16.5 12.2348C16.5 11.5421 16.1095 10.919 15.5109 10.644L15.0934 11.5526C15.3195 11.6565 15.5 11.9131 15.5 12.2348H16.5ZM14 15C14.256 15 14.4651 14.9021 14.6036 14.8208L14.0972 13.9585C14.065 13.9774 14.0408 13.9884 14.0231 13.9944C14.0146 13.9973 14.0087 13.9987 14.005 13.9994C14.0032 13.9997 14.0019 13.9999 14.0011 13.9999C14.0007 14 14.0004 14 14.0003 14C14.0002 14 14.0001 14 14.0001 14C14 14 14 14 14 14V15ZM14.6036 14.8208C14.7422 14.7394 14.8713 14.6366 14.9621 14.5646L14.3411 13.7808C14.2413 13.8599 14.1659 13.9182 14.0972 13.9585L14.6036 14.8208ZM15.5109 10.644C14.922 10.3734 14.2295 10.4811 13.6657 10.9881L14.3343 11.7317C14.6308 11.465 14.9016 11.4645 15.0934 11.5526L15.5109 10.644ZM14.3343 10.9881C13.7705 10.4811 13.078 10.3734 12.4891 10.644L12.9066 11.5526C13.0984 11.4645 13.3692 11.465 13.6657 11.7317L14.3343 10.9881Z"
                fill="white" />
    </g>
</svg>

<svg xmlns="http://www.w3.org/2000/svg" width="18" height="18" fill="none"><g fill="#fff"><path d="M9 15.754c-.432 0-.844-.224-1.13-.615l-.942-1.279a.3.3 0 0 0-.128-.064h-.311c-2.617 0-4.239-.722-4.239-4.319V6.575c0-2.827 1.466-4.321 4.239-4.321h5.022c2.773 0 4.239 1.494 4.239 4.32v2.428a.474.474 0 1 1-.948 0l.002-2.429c0-2.29-1.046-3.357-3.294-3.357H6.489c-2.248 0-3.294 1.067-3.294 3.357v2.903c0 2.872 1.015 3.356 3.294 3.356h.314c.324 0 .696.191.883.455l.938 1.273c.109.149.242.23.375.23.132 0 .265-.081.374-.23l.641-.87a.476.476 0 1 1 .767.565l-.65.883c-.288.39-.7.614-1.131.614z"/><path d="M12.139 7.055H5.86a.48.48 0 0 1-.472-.481c0-.265.212-.481.472-.481h6.278c.26 0 .472.216.472.48a.48.48 0 0 1-.472.482M5.861 9.958h3.767c.26 0 .472-.216.472-.481a.48.48 0 0 0-.472-.482H5.86a.48.48 0 0 0-.472.482c0 .265.212.48.472.48M14.652 14.173l.31.392zm-2.174-.753.374-.33zm.87.753-.31.392zm-.65-3.075-.209-.454zm.952 3.292-.254.43zm1.873-.97-.375-.33zm-.22-2.322-.21.455zm-.953 3.292-.253-.431zM14 11.36l-.334.372a.5.5 0 0 0 .668 0zm-2.5.875c0 .654.276 1.147.603 1.516l.75-.662c-.216-.244-.353-.511-.353-.854zm.603 1.516c.304.345.699.626.935.814l.62-.784c-.294-.234-.578-.434-.806-.692zm.386-3.107c-.599.275-.989.898-.989 1.59h1c0-.32.18-.578.407-.681zm.549 3.92c.09.073.22.175.358.257l.507-.862a2 2 0 0 1-.244-.178zm.358.257c.139.081.348.179.604.179v-1h-.005l-.018-.006a.4.4 0 0 1-.074-.035zm1.566-.256c.236-.188.63-.469.935-.814l-.75-.662c-.227.258-.511.458-.806.692zm.935-.814c.327-.37.603-.862.603-1.516h-1c0 .343-.137.61-.352.854zm.603-1.516c0-.693-.39-1.316-.99-1.591l-.417.909c.226.103.407.36.407.682zM14 15c.256 0 .465-.098.604-.18l-.507-.861a.4.4 0 0 1-.096.04V14H14zm.604-.18c.138-.08.267-.183.358-.255l-.62-.784c-.1.079-.176.137-.245.178zm.907-4.176c-.589-.27-1.281-.163-1.845.344l.668.744c.297-.267.568-.268.76-.18zm-1.177.344c-.563-.507-1.256-.615-1.845-.344l.418.909c.191-.089.462-.088.759.179z"/></g></svg>
